!!!OTL: Wilmens Esel
!!!ARE: Europa, Mitteleuropa, Lothringen, Breisdorf ( Kr. Diedenhofen )
!!!SCT: D0047
!!!YEM: Copyright 1995, estate of Helmut Schaffrath.
**kern
*ICvox
*Ivox
!! Mixed meters:  2/4; 3/4
*M3/4
*k[b-e-]
*B-:
{8f
=1
8b-
8b-
8b-
8cc
=2
8dd
8cc
4b-}
=3
{8cc
8b-
8cc
8dd
=4
8ee-
16cc
16cc
4dd
4dd}
=5
*M2/4
{8ff
8ee-
8dd
8cc
=6
8dd
16cc
16cc
4b-}
=7
{8cc
8cc
8cc
8dd
=8
8b-
8b-
4b-}
=9
{4cc
8cc
8b-
=10
8dd
8cc
8b-
8a
=11
4g
8r}
==
!!!AGN: Ballade, Schwank
!! Heptatonik ( Ionisch, Schluss moduliert in parallele Molltonart)
!!    Inzipit = Variante zum Lied
!!!ONB: ESAC (Essen Associative Code) Database: DVA
!!!AMT: irregular
!!!AIN: vox
!!!EED: Helmut Schaffrath
!!!EEV: 1.0
*-
